public/assets/images/icons/green/group2.svg

<svg width="16" height="16" xmlns="http://www.w3.org/2000/svg" viewBox="0 0 54 54"><path d="M11.72 24.63a6.16 6.16 0 1 0-6.15-6.16 6.15 6.15 0 0 0 6.15 6.16Zm2.79 2.92H8.9A5.94 5.94 0 0 0 3 33.49v7.71h17.43v-7.71a6 6 0 0 0-5.92-5.94Zm27.77 4.37a6.16 6.16 0 1 0-6.14-6.15 6.15 6.15 0 0 0 6.14 6.15Zm2.8 2.93h-5.61a5.92 5.92 0 0 0-5.9 5.93v7.72H51v-7.72a6 6 0 0 0-5.92-5.93ZM25.3 17.82a6.16 6.16 0 1 0-6.14-6.16 6.15 6.15 0 0 0 6.14 6.16Z" fill="#00962d"/><path d="M34 34.39v-7.72a6 6 0 0 0-5.92-5.93h-5.59a5.91 5.91 0 0 0-5.88 5.7 7.38 7.38 0 0 1 5.28 7.05v.9Z" fill="#00962d"/></svg>

<svg width="16" height="16" xmlns="http://www.w3.org/2000/svg" viewBox="0 0 54 54"><defs><style>.a{fill:#00962d;}</style></defs><path class="a" d="M11.72,24.63a6.16,6.16,0,1,0-6.15-6.16A6.15,6.15,0,0,0,11.72,24.63Z"/><path class="a" d="M14.51,27.55H8.9A5.94,5.94,0,0,0,3,33.49V41.2H20.43V33.49A6,6,0,0,0,14.51,27.55Z"/><path class="a" d="M42.28,31.92a6.16,6.16,0,1,0-6.14-6.15A6.15,6.15,0,0,0,42.28,31.92Z"/><path class="a" d="M45.08,34.85H39.47a5.92,5.92,0,0,0-5.9,5.93V48.5H51V40.78A6,6,0,0,0,45.08,34.85Z"/><path class="a" d="M25.3,17.82a6.16,6.16,0,1,0-6.14-6.16A6.15,6.15,0,0,0,25.3,17.82Z"/><path class="a" d="M34,34.39V26.67a6,6,0,0,0-5.92-5.93H22.49a5.91,5.91,0,0,0-5.88,5.7,7.38,7.38,0,0,1,5.28,7.05v.9Z"/></svg>
